symbols/web/elevator/materialsymbolsrounded/elevator_wght200fill1_48px.svg

<svg xmlns="http://www.w3.org/2000/svg" height="48" width="48"><path d="M17.15 35.25h1.25q.6 0 .975-.4t.375-1V27.4h.65q.6 0 .975-.4t.375-1v-4q0-1.25-.85-2.125T18.75 19h-2q-1.25 0-2.125.875T13.75 22v4q0 .6.4 1t1 .4h.6v6.45q0 .6.4 1t1 .4Zm.6-17.95q.95 0 1.625-.65t.675-1.6q0-.95-.675-1.6-.675-.65-1.575-.65-.95 0-1.625.65t-.675 1.6q0 .9.675 1.575.675.675 1.575.675Zm10.9 3.45h3.7q.45 0 .675-.375Q33.25 20 33 19.65l-1.85-3q-.05-.1-.65-.4-.2 0-.375.125t-.275.275l-1.85 3q-.25.35-.025.725t.675.375ZM30.5 31.7q.2 0 .375-.1t.275-.25l1.85-3q.25-.35.025-.725t-.675-.375h-3.7q-.45 0-.675.375-.225.375.025.725l1.85 3q.05.05.65.35ZM10.75 40q-1.15 0-1.95-.8T8 37.25v-26.5q0-1.15.8-1.95t1.95-.8h26.5q1.15 0 1.95.8t.8 1.95v26.5q0 1.15-.8 1.95t-1.95.8Z"/></svg>

<svg xmlns="http://www.w3.org/2000/svg" height="48" width="48"><path d="M17.15 35.25H18.4Q19 35.25 19.375 34.85Q19.75 34.45 19.75 33.85V27.4H20.4Q21 27.4 21.375 27Q21.75 26.6 21.75 26V22Q21.75 20.75 20.9 19.875Q20.05 19 18.75 19H16.75Q15.5 19 14.625 19.875Q13.75 20.75 13.75 22V26Q13.75 26.6 14.15 27Q14.55 27.4 15.15 27.4H15.75V33.85Q15.75 34.45 16.15 34.85Q16.55 35.25 17.15 35.25ZM17.75 17.3Q18.7 17.3 19.375 16.65Q20.05 16 20.05 15.05Q20.05 14.1 19.375 13.45Q18.7 12.8 17.8 12.8Q16.85 12.8 16.175 13.45Q15.5 14.1 15.5 15.05Q15.5 15.95 16.175 16.625Q16.85 17.3 17.75 17.3ZM28.65 20.75H32.35Q32.8 20.75 33.025 20.375Q33.25 20 33 19.65L31.15 16.65Q31.1 16.55 30.5 16.25Q30.3 16.25 30.125 16.375Q29.95 16.5 29.85 16.65L28 19.65Q27.75 20 27.975 20.375Q28.2 20.75 28.65 20.75ZM30.5 31.7Q30.7 31.7 30.875 31.6Q31.05 31.5 31.15 31.35L33 28.35Q33.25 28 33.025 27.625Q32.8 27.25 32.35 27.25H28.65Q28.2 27.25 27.975 27.625Q27.75 28 28 28.35L29.85 31.35Q29.9 31.4 30.5 31.7ZM10.75 40Q9.6 40 8.8 39.2Q8 38.4 8 37.25V10.75Q8 9.6 8.8 8.8Q9.6 8 10.75 8H37.25Q38.4 8 39.2 8.8Q40 9.6 40 10.75V37.25Q40 38.4 39.2 39.2Q38.4 40 37.25 40Z"/></svg>
